X: 02103
T: PRETTY KATIE
C: Bob McQuillen Mar.'76
B: Bob's Note Book 1&2 #103
%R: reel
Z: 2019 John Chambers <jc:trillian.mit.edu>
M: C
L: 1/8
K: A
cB \
| AGAc B2cB | AGAc e2AB | c2e2 efec | ABcA B2cB |
| AGAc B2cB | AGAc e2AB | c2e2 efec | AcBG A2 :|
|: cd \
| e2c2 e2cd | eafa e2cd | efec Acef | ecAc B2cd |
| e2c2 e2cd | eafa e2cd | e2c2 Acef | ecBc A2 :|
%%begintext align
%% For Katie Marsden
%% of Francestown, N.H.
%%endtext

%%sep 1 1 500

%%sep 1 1 500

